icons/world-latitude.svg

<svg width="24" height="24" viewBox="0 0 24 24" fill="none" xmlns="http://www.w3.org/2000/svg">
<path fill-rule="evenodd" clip-rule="evenodd" d="M4.06189 11H19.9381C19.8032 9.91806 19.4522 8.90321 18.9297 8H5.07026C4.54778 8.90321 4.19681 9.91806 4.06189 11ZM3.58607 6.59351C2.58235 8.15235 2 10.0082 2 12C2 14.0431 2.6138 15.9459 3.66727 17.5304C5.45712 20.2223 8.52075 22 12 22C15.4793 22 18.5429 20.2223 20.3327 17.5304C21.3862 15.9459 22 14.0431 22 12C22 10.0082 21.4177 8.15234 20.4139 6.5935C20.3675 6.48922 20.3037 6.39436 20.2263 6.31257C18.4212 3.70674 15.4099 2 12 2C8.59006 2 5.57876 3.70674 3.77374 6.31257C3.6963 6.39436 3.63252 6.48923 3.58607 6.59351ZM6.70835 6H17.2916C15.8814 4.75527 14.0289 4 12 4C9.97111 4 8.11862 4.75527 6.70835 6ZM19.9382 13H4.0618C4.19547 14.0733 4.54156 15.0796 5.05663 15.9767H18.9434C19.4584 15.0796 19.8045 14.0733 19.9382 13ZM17.3181 17.9767H6.68187C8.09602 19.2361 9.95891 20 12 20C14.0411 20 15.904 19.2361 17.3181 17.9767Z" fill="black"/>
</svg>

<svg
  width="24"
  height="24"
  viewBox="0 0 24 24"
  xmlns="http://www.w3.org/2000/svg"
>
  <path
    fill-rule="evenodd"
    clip-rule="evenodd"
    d="M4.062 11h15.876a7.947 7.947 0 0 0-1.008-3H5.07a7.948 7.948 0 0 0-1.008 3zm-.476-4.406A9.953 9.953 0 0 0 2 12c0 2.043.614 3.946 1.667 5.53A9.992 9.992 0 0 0 12 22a9.992 9.992 0 0 0 8.333-4.47A9.958 9.958 0 0 0 22 12a9.953 9.953 0 0 0-1.586-5.407c-.047-.104-.11-.199-.188-.28A9.99 9.99 0 0 0 12 2a9.989 9.989 0 0 0-8.226 4.313 1.002 1.002 0 0 0-.188.28zM6.708 6h10.584A7.97 7.97 0 0 0 12 4a7.97 7.97 0 0 0-5.292 2zm13.23 7H4.062a7.94 7.94 0 0 0 .995 2.977h13.886A7.942 7.942 0 0 0 19.938 13zm-2.62 4.977H6.682A7.969 7.969 0 0 0 12 20a7.968 7.968 0 0 0 5.318-2.023z"
  />
</svg>
